X: 15534
T: Glenties, The
R: mazurka
M: 3/4
K: Gmajor
|:G>A B2 B>A|B>E D2 (3DDD|B,>D E2 (3EEE|C>E D2 (3DDD|
G>A B2 B>A|G>E D2 (3DDD|B,>D E2 A2|F2 G4:|
|:G>A B2 B>d|c>B c2 (3ccc|D>F A2 A>c|B>A B2 (3BBB|
G>A B2 B>d|c>B c2 (3ccc|D>F A2 A>c|B>A G4:|

